public/images/hashed/18b2109cc06bd112fd48fb22be58252b.svg

<svg xmlns="http://www.w3.org/2000/svg" width="80" height="80"><defs><linearGradient id="a" x1="0%" x2="100%" y1="100%" y2="0%"><stop offset="0%" stop-color="#2E27AD"/><stop offset="100%" stop-color="#527FFF"/></linearGradient></defs><g fill="none" fill-rule="evenodd"><path fill="url(#a)" d="M0 0h80v80H0z"/><path fill="#FFF" d="m68.024 29.02-3.221.756 2.521 2.828c-.188.374-.44.677-.756.91a2.319 2.319 0 0 1-1.065.434l-1.959-3.388-1.96 3.388a2.323 2.323 0 0 1-1.065-.434 2.49 2.49 0 0 1-.756-.91l2.521-2.828-3.22-.756a2.372 2.372 0 0 1-.057-.448c0-.635.243-1.195.729-1.68l3.023 1.484-.391-3.612a2.828 2.828 0 0 1 1.176-.252c.429 0 .821.084 1.175.252l-.391 3.612 3.023-1.484c.486.485.729 1.045.729 1.68 0 .112-.019.261-.056.448ZM52.93 52.278c1.503 0 3.171-.3 5.002-.902v1.927c-1.694.765-3.402 1.148-5.125 1.148-3.171 0-5.575-.909-7.216-2.726-1.639-1.818-2.46-4.49-2.46-8.016 0-3.499.834-6.17 2.501-8.016 1.667-1.844 4.086-2.767 7.257-2.767 1.695 0 3.294.328 4.797.984v1.927a14.928 14.928 0 0 0-4.674-.738c-2.596 0-4.475.663-5.636 1.988-1.163 1.327-1.744 3.452-1.744 6.376v.492c0 2.843.588 4.94 1.764 6.294 1.175 1.353 3.02 2.029 5.534 2.029ZM31 13c10.767 0 18 3.103 18 6s-7.233 6-18 6c-10.642 0-17-3.051-17-6s6.358-6 17-6Zm18 49c0 2.897-7.233 6-18 6-8.357 0-17-2.244-17-6V51.883C16.973 54.44 23.075 56 31 56c4.092 0 7.981-.435 11.244-1.256l-.489-1.94C38.65 53.586 34.93 54 31 54c-8.357 0-17-2.23-17-5.963V37.8c3.001 2.584 9.168 4.2 17 4.2 4.088 0 7.977-.439 11.246-1.27l-.493-1.938C38.643 39.583 34.924 40 31 40c-10.642 0-17-3.051-17-6V22.8c3.001 2.584 9.168 4.2 17 4.2 7.258 0 14.578-1.468 18-4.304V26h2v-7c0-5.252-10.062-8-20-8-11.187 0-19 3.29-19 8v43c0 4.785 7.635 8 19 8 9.938 0 20-2.748 20-8v-2h-2v2Z"/></g></svg>

<?xml version="1.0" encoding="UTF-8"?>
<svg width="80px" height="80px" viewBox="0 0 80 80" version="1.1" xmlns="http://www.w3.org/2000/svg" xmlns:xlink="http://www.w3.org/1999/xlink">
    <title>Icon-Architecture/64/Arch_Amazon-Keyspaces_64</title>
    <defs>
        <linearGradient x1="0%" y1="100%" x2="100%" y2="0%" id="linearGradient-1">
            <stop stop-color="#2E27AD" offset="0%"></stop>
            <stop stop-color="#527FFF" offset="100%"></stop>
        </linearGradient>
    </defs>
    <g id="Icon-Architecture/64/Arch_Amazon-Keyspaces_64" stroke="none" stroke-width="1" fill="none" fill-rule="evenodd">
        <g id="Rectangle" fill="url(#linearGradient-1)">
            <rect x="0" y="0" width="80" height="80"></rect>
        </g>
        <path d="M68.024,29.02 L64.803,29.776 L67.324,32.604 C67.136,32.978 66.884,33.281 66.568,33.514 C66.25,33.748 65.896,33.892 65.503,33.948 L63.544,30.56 L61.584,33.948 C61.192,33.892 60.837,33.748 60.519,33.514 C60.202,33.281 59.95,32.978 59.763,32.604 L62.284,29.776 L59.064,29.02 C59.026,28.833 59.007,28.684 59.007,28.572 C59.007,27.937 59.25,27.377 59.736,26.892 L62.759,28.376 L62.368,24.764 C62.741,24.596 63.132,24.512 63.544,24.512 C63.973,24.512 64.365,24.596 64.719,24.764 L64.328,28.376 L67.351,26.892 C67.837,27.377 68.08,27.937 68.08,28.572 C68.08,28.684 68.061,28.833 68.024,29.02 L68.024,29.02 Z M52.93,52.278 C54.433,52.278 56.101,51.978 57.932,51.376 L57.932,53.303 C56.238,54.068 54.53,54.451 52.807,54.451 C49.636,54.451 47.232,53.542 45.591,51.725 C43.952,49.907 43.131,47.235 43.131,43.709 C43.131,40.21 43.965,37.539 45.632,35.693 C47.299,33.849 49.718,32.926 52.889,32.926 C54.584,32.926 56.183,33.254 57.686,33.91 L57.686,35.837 C56.183,35.345 54.625,35.099 53.012,35.099 C50.416,35.099 48.537,35.762 47.376,37.087 C46.213,38.414 45.632,40.539 45.632,43.463 L45.632,43.955 C45.632,46.798 46.22,48.895 47.396,50.249 C48.571,51.602 50.416,52.278 52.93,52.278 L52.93,52.278 Z M31,13 C41.767,13 49,16.103 49,19 C49,21.897 41.767,25 31,25 C20.358,25 14,21.949 14,19 C14,16.051 20.358,13 31,13 L31,13 Z M49,62 C49,64.897 41.767,68 31,68 C22.643,68 14,65.756 14,62 L14,51.883 C16.973,54.44 23.075,56 31,56 C35.092,56 38.981,55.565 42.244,54.744 L41.755,52.804 C38.65,53.586 34.93,54 31,54 C22.643,54 14,51.77 14,48.037 L14,37.8 C17.001,40.384 23.168,42 31,42 C35.088,42 38.977,41.561 42.246,40.73 L41.753,38.792 C38.643,39.583 34.924,40 31,40 C20.358,40 14,36.949 14,34 L14,22.8 C17.001,25.384 23.168,27 31,27 C38.258,27 45.578,25.532 49,22.696 L49,26 L51,26 L51,19 C51,13.748 40.938,11 31,11 C19.813,11 12,14.29 12,19 L12,62 C12,66.785 19.635,70 31,70 C40.938,70 51,67.252 51,62 L51,60 L49,60 L49,62 Z" id="Amazon-Keyspaces-Service_Icon_64_Squid" fill="#FFFFFF"></path>
    </g>
</svg>
